static/sponsor/pronto.svg

<?xml version="1.0" encoding="UTF-8"?>
<svg width="409px" height="196px" viewBox="0 0 409 196" version="1.1" xmlns="http://www.w3.org/2000/svg" xmlns:xlink="http://www.w3.org/1999/xlink">
    <!-- Generator: Sketch 43.1 (39012) - http://www.bohemiancoding.com/sketch -->
    <title>Group 17</title>
    <desc>Created with Sketch.</desc>
    <defs>
        <polygon id="path-1" points="32.2615346 30.5163142 32.2615346 0.350616023 0.537808425 0.350616023 0.537808425 30.5163142 32.2615346 30.5163142"></polygon>
    </defs>
    <g id="Page-1" stroke="none" stroke-width="1" fill="none" fill-rule="evenodd">
        <g id="Group-17" transform="translate(-46.000000, -63.000000)">
            <rect id="Rectangle-Copy-4" fill-opacity="0" fill="#D8D8D8" x="0" y="0" width="500" height="300"></rect>
            <g id="Page-1" transform="translate(46.000000, 63.000000)">
                <path d="M25.2862862,93.4493972 C26.7368437,93.747873 28.3503852,93.9099996 30.1112913,93.9099996 C33.0979728,93.9099996 35.8184472,93.3496792 38.2733935,92.2432839 C40.7242652,91.1260349 42.8138557,89.5882064 44.5333367,87.5897757 C46.2575715,85.6021985 47.5974356,83.2089657 48.557683,80.4182175 C49.5172512,77.6261125 49.9973748,74.5436721 49.9973748,71.1770013 C49.9973748,67.8876629 49.2659842,65.0894528 47.8154267,62.795938 C46.3540036,60.4983532 43.828431,59.3519349 40.2217312,59.3519349 C37.7708595,59.3519349 35.4748226,59.5771485 33.330225,60.0377508 L25.2862862,93.4493972 Z M67,69.9091578 C67,75.4987945 66.0845733,80.6061215 64.2462497,85.2372441 C62.4079262,89.8649749 59.8606223,93.8733685 56.6050172,97.2325773 C53.3494121,100.60671 49.4357592,103.228548 44.8803568,105.101483 C40.322238,106.978489 35.3641293,107.914617 29.9965234,107.914617 C27.3942124,107.914617 24.7844314,107.68669 22.1821204,107.22134 L17.0100953,128 L0,128 L19.0772755,48.5586449 C22.1488445,47.6401537 25.6482465,46.8220588 29.5978917,46.0880798 C33.540746,45.3581709 37.8075309,45 42.415224,45 C46.7010237,45 50.3960065,45.645793 53.5042469,46.950946 C56.6050172,48.2527073 59.151642,50.0333865 61.1454794,52.2868783 C63.1352422,54.5505455 64.60821,57.1839157 65.5677782,60.2107311 C66.5273464,63.2382248 67,66.4685464 67,69.9091578 L67,69.9091578 Z" id="Fill-1" fill="#FFFFFF"></path>
                <path d="M112.865924,61.0432793 C111.315988,60.6613127 109.777074,60.2943519 108.256759,59.9458074 C106.747466,59.6006733 104.515559,59.4226496 101.561037,59.4226496 C100.471949,59.4226496 99.2623101,59.5263262 97.9438314,59.7152633 C96.6184641,59.9082928 95.5362645,60.1238311 94.6827666,60.3496007 L83.3737465,107 L66,107 L79.99282,49.5010671 C83.3289706,48.426104 87.0811928,47.4063896 91.237776,46.4385135 C95.3978036,45.4781403 100.07861,45 105.290527,45 C107.230358,45 109.391312,45.1705208 111.757548,45.5224757 C114.123783,45.8601069 116.202075,46.4200973 118,47.1908513 L112.865924,61.0432793 Z" id="Fill-3" fill="#FFFFFF"></path>
                <path d="M183.924898,49.1448165 C185.226151,48.7642395 186.667455,48.3237506 188.241331,47.8165417 C189.815888,47.3168217 191.574686,46.8613548 193.533364,46.4358439 C195.492041,46.017822 197.673033,45.6699243 200.089257,45.4030439 C202.50684,45.1334402 205.248716,45 208.316246,45 C217.296521,45 223.483249,47.6095732 226.897508,52.8348469 C230.312446,58.0601206 230.911403,65.2032569 228.678742,74.2622135 L220.858988,107 L203.718351,107 L211.309671,74.9580089 C211.775375,72.9598098 212.137061,71.020161 212.403566,69.1363392 C212.669391,67.2566023 212.647636,65.6063009 212.344418,64.1847541 C212.041201,62.7638881 211.331426,61.6092218 210.215776,60.72484 C209.099445,59.8438622 207.399794,59.4033733 205.100507,59.4033733 C202.876004,59.4033733 200.614109,59.6294047 198.301224,60.0916798 L187.147436,107 L170,107 L183.924898,49.1448165 Z" id="Fill-5" fill="#FFFFFF"></path>
                <path d="M244.786737,31.7656999 L262.424995,29 L258.095812,46.8921343 L277,46.8921343 L273.58495,60.9729909 L254.797804,60.9729909 L249.788571,82.2132931 C249.335204,83.989343 249.064126,85.6392143 248.991479,87.1779119 C248.910761,88.7125173 249.101121,90.0472829 249.554488,91.1631115 C250.015254,92.2789401 250.827144,93.1430934 252.004284,93.7582997 C253.188822,94.3810084 254.863724,94.6852013 257.072037,94.6852013 C258.892904,94.6852013 260.662649,94.5037768 262.366475,94.1627534 C264.070973,93.8142275 265.796323,93.3361127 267.54387,92.7202244 L268.795001,105.878272 C266.520768,106.723328 264.055502,107.457892 261.393821,108.069688 C258.73954,108.684894 255.594896,109 251.960561,109 C246.709847,109 242.651742,108.20678 239.770105,106.630569 C236.888467,105.051631 234.826792,102.893635 233.620056,100.165448 C232.40592,97.4365782 231.871835,94.2998448 232.025872,90.7593398 C232.186636,87.2181527 232.705923,83.4778079 233.620056,79.5621771 L244.786737,31.7656999 Z" id="Fill-7" fill="#FFFFFF"></path>
                <path d="M305.452502,59.5594164 C302.924407,59.5594164 300.691415,60.2904588 298.777324,61.7525437 C296.855075,63.2214543 295.243567,65.0657836 293.942121,67.299183 C292.641356,69.5291696 291.658132,71.9707557 291.008089,74.6307673 C290.349887,77.2914614 290.031665,79.8142744 290.031665,82.1964762 C290.031665,86.0591924 290.64567,89.0529852 291.873,91.2051577 C293.099649,93.3682515 295.325162,94.448092 298.547498,94.448092 C301.076273,94.448092 303.301106,93.7136367 305.223355,92.2474563 C307.138126,90.7860541 308.749634,88.9417248 310.050399,86.7083253 C311.358644,84.4708304 312.334388,82.0258314 312.985111,79.3692327 C313.635834,76.716047 313.968335,74.1932339 313.968335,71.8001109 C313.968335,67.9483159 313.35433,64.9511103 312.12768,62.7914294 C310.900351,60.6392568 308.675518,59.5594164 305.452502,59.5594164 M296.93667,109 C292.863023,109 289.344224,108.380901 286.342876,107.15294 C283.357167,105.916789 280.872589,104.187816 278.928581,101.954417 C276.969613,99.7203345 275.491377,97.086261 274.493874,94.0399096 C273.503171,90.9976536 273,87.6284422 273,83.9329579 C273,79.3132612 273.746597,74.6901517 275.239792,70.0670421 C276.740466,65.448028 278.93606,61.2924852 281.856493,57.5963183 C284.768766,53.8974211 288.346722,50.8735948 292.56792,48.520744 C296.780959,46.1760841 301.616162,45 307.07149,45 C311.048582,45 314.559901,45.6156865 317.597967,46.8477422 C320.621754,48.0791152 323.119931,49.812184 325.06394,52.0462661 C327.022908,54.2830784 328.501823,56.9212474 329.499326,59.9600904 C330.504988,62.9989335 331,66.3756532 331,70.0670421 C331,74.6901517 330.268362,79.3132612 328.811885,83.9329579 C327.348609,88.5526546 325.204692,92.7081974 322.373334,96.41119 C319.534496,100.102579 315.97898,103.126405 311.721064,105.475843 C307.463147,107.823916 302.53275,109 296.93667,109" id="Fill-9" fill="#FFFFFF"></path>
                <path d="M103,107 C104.733902,105.629903 106.784055,103.98403 109.117601,102.050889 C113.363027,98.5381152 120.686077,95.5735153 129.169397,92.1418523 C138.099712,88.5263381 148.213572,84.4295665 157.121298,78.778847 C168.228403,71.7424846 174.844339,56.9613922 178,48 C170.67695,52.6179085 162.963036,55.631175 154.907543,58.7796261 C146.442021,62.0862432 137.690366,65.5070915 128.369187,71.1145518 C114.557523,79.4290853 106.627983,96.8557419 103,107" id="Fill-11" fill="#FFFFFF"></path>
                <path d="M125.184596,67.0113718 C134.958914,61.1510297 143.973527,57.6346888 152.689488,54.2363277 C155.850107,53.002286 158.954988,51.7818051 162,50.480637 C160.301674,48.9882601 158.281988,47.7684574 155.954704,46.8354676 C152.887672,45.6122746 149.341694,45 145.305763,45 C139.787581,45 134.903175,46.1682714 130.623642,48.4980337 C126.359249,50.8345764 122.745834,53.8389934 119.790968,57.5133187 C116.842983,61.1842539 114.614103,65.3121912 113.102263,69.9011992 C111.984726,73.2697263 111.292459,76.6274046 111,80 C114.898304,74.9838238 119.581774,70.3839671 125.184596,67.0113718" id="Fill-13" fill="#FFFFFF"></path>
                <path d="M159.680609,83.1919455 C150.286018,89.1206122 139.841373,93.3161069 130.630989,97.0255011 C125.882985,98.9394375 121.533062,100.694951 118,102.424738 C119.721341,103.966313 121.750386,105.221509 124.097481,106.167306 C127.131733,107.385266 130.7055,108 134.83879,108 C140.524391,108 145.526974,106.833494 149.839642,104.503867 C154.163348,102.17424 157.760572,99.1750405 160.640973,95.5130378 C163.524134,91.8402027 165.707029,87.7185032 167.18138,83.1364298 C168.062404,80.4242866 168.643313,77.7162054 169,75 C166.295528,78.1501754 163.194354,80.9841823 159.680609,83.1919455" id="Fill-15" fill="#FFFFFF"></path>
                <path d="M209.216766,149.515193 L209.216766,133.503696 L204,133.503696 L204,126.423214 L209.216766,126.423214 L209.216766,118 L217.501599,118 L217.501599,126.423214 L223.894516,126.423214 L223.894516,133.503696 L217.501599,133.503696 L217.501599,147.345059 C217.501599,149.322885 218.544113,150.79291 220.369561,150.79291 C221.608683,150.79291 222.784834,150.346017 223.241721,149.834793 L225,156.022174 C223.760878,157.106898 221.545712,158 218.087926,158 C212.284834,158 209.216766,155.064057 209.216766,149.515193" id="Fill-17" fill="#FFFFFF"></path>
                <path d="M264.477569,141.967837 C264.477569,137.235447 261.634449,133.131425 256.469172,133.131425 C251.366243,133.131425 248.526588,137.235447 248.526588,141.967837 C248.526588,146.76523 251.366243,150.869252 256.469172,150.869252 C261.634449,150.869252 264.477569,146.76523 264.477569,141.967837 M240,141.967837 C240,133.321695 246.201658,126 256.469172,126 C266.799034,126 273,133.321695 273,141.967837 C273,150.613978 266.799034,158 256.469172,158 C246.201658,158 240,150.613978 240,141.967837" id="Fill-19" fill="#FFFFFF"></path>
                <path d="M314.477569,141.967837 C314.477569,137.235447 311.634449,133.131425 306.469172,133.131425 C301.366243,133.131425 298.526588,137.235447 298.526588,141.967837 C298.526588,146.76523 301.366243,150.869252 306.469172,150.869252 C311.634449,150.869252 314.477569,146.76523 314.477569,141.967837 M290,141.967837 C290,133.321695 296.201658,126 306.469172,126 C316.799034,126 323,133.321695 323,141.967837 C323,150.613978 316.799034,158 306.469172,158 C296.201658,158 290,150.613978 290,141.967837" id="Fill-21" fill="#FFFFFF"></path>
                <path d="M355,153.26751 L358.486942,147.4577 C360.768958,149.604892 365.269071,151.687757 369.070164,151.687757 C372.556426,151.687757 374.204699,150.362605 374.204699,148.470016 C374.204699,143.482924 356.07845,147.587033 356.07845,135.594312 C356.07845,130.480596 360.513285,126 368.626136,126 C373.761352,126 377.882716,127.765966 380.92563,130.165051 L377.691641,135.845529 C375.852293,133.952939 372.369431,132.312243 368.626136,132.312243 C365.713098,132.312243 363.809152,133.57239 363.809152,135.27809 C363.809152,139.759363 382,135.970799 382,148.279741 C382,153.895891 377.183016,158 368.691415,158 C363.365125,158 358.234669,156.233357 355,153.26751" id="Fill-23" fill="#FFFFFF"></path>
                <g id="Group-27" transform="translate(376.000000, 25.000000)">
                    <mask id="mask-2" fill="white">
                        <use xlink:href="#path-1"></use>
                    </mask>
                    <g id="Clip-26"></g>
                    <polygon id="Fill-25" fill="#FFFFFF" mask="url(#mask-2)" points="24.4760344 0.350616023 23.6151226 11.1140273 32.2618831 17.9044217 21.44925 20.4355961 17.467446 30.5163142 11.6460097 21.3172106 0.537808425 20.7563062 7.75273675 12.5403078 4.8695538 2.11316859 15.1503038 6.23436157"></polygon>
                </g>
                <polygon id="Fill-28" fill="#FFFFFF" points="366.012907 0 369.059688 4.935103 375 5.31161957 371.076923 9.63244036 372.541917 15.2000651 367.070807 12.9357544 362.035146 16 362.577261 10.2792932 358 6.60597671 363.805965 5.33507043"></polygon>
                <polygon id="Fill-30" fill="#FFFFFF" points="336.004304 24 342.751774 29.1504532 350.837152 26.5349127 348.003606 34.5177677 353 41.367662 344.501454 41.1508008 339.503664 48 337.085379 39.8829969 329 37.2660662 336.003606 32.4666223"></polygon>
                <g id="Group-34" transform="translate(320.000000, 74.000000)" fill="#FFFFFF">
                    <path d="M32.0421549,0.444291916 L32.0387093,0.443611322 L0.561838406,115.957468 C-0.114876073,118.440956 1.37499837,120.996587 3.89028131,121.664931 C5.14792278,121.999783 6.42348134,121.798327 7.46887428,121.203488 C8.51495633,120.608649 9.33087277,119.619745 9.66923001,118.378341 L41.1502357,2.84678956 L32.0421549,0.444291916 Z" id="Fill-32"></path>
                </g>
                <path d="M363.705326,45.1602521 C361.331878,44.4956124 358.890803,45.9589025 358.252248,48.4293045 L352,72.6101399 L360.597735,75 L366.846081,50.8360851 C367.484636,48.36636 366.078124,45.8248917 363.705326,45.1602521" id="Fill-35" fill="#FFFFFF"></path>
            </g>
        </g>
    </g>
</svg>

<svg width="409" height="206" viewBox="0 0 409 206" xmlns="http://www.w3.org/2000/svg" xmlns:xlink="http://www.w3.org/1999/xlink"><title>Group 17</title><defs><path id="a" d="M32.262 30.516V.351H.538v30.165h31.724z"/></defs><g fill="none" fill-rule="evenodd"><path fill="none" d="M-46-63h500v300H-46z"/><path d="M25.286 93.45c1.45.298 3.064.46 4.825.46 2.987 0 5.707-.56 8.162-1.667 2.451-1.117 4.54-2.655 6.26-4.653 1.725-1.988 3.064-4.381 4.025-7.172.96-2.792 1.44-5.874 1.44-9.241 0-3.29-.732-6.088-2.183-8.381-1.461-2.298-3.987-3.444-7.593-3.444-2.451 0-4.747.225-6.892.686l-8.044 33.411zM67 69.91c0 5.589-.915 10.696-2.754 15.327-1.838 4.628-4.385 8.636-7.641 11.996-3.256 3.374-7.17 5.996-11.725 7.868-4.558 1.877-9.516 2.814-14.883 2.814-2.603 0-5.213-.228-7.815-.694L17.01 128H0l19.077-79.441c3.072-.919 6.571-1.737 10.52-2.47 3.944-.73 8.21-1.089 12.818-1.089 4.286 0 7.981.646 11.09 1.95 3.1 1.303 5.647 3.083 7.64 5.337 1.99 2.264 3.463 4.897 4.423 7.924S67 66.469 67 69.909zM112.866 61.043c-1.55-.382-3.089-.749-4.61-1.097-1.509-.345-3.74-.523-6.695-.523-1.09 0-2.299.103-3.617.292-1.326.193-2.408.409-3.261.635L83.373 107H66l13.993-57.499c3.336-1.075 7.088-2.095 11.245-3.062 4.16-.96 8.84-1.439 14.053-1.439 1.94 0 4.1.17 6.467.522 2.366.338 4.444.898 6.242 1.669l-5.134 13.852zM183.925 49.145c1.301-.38 2.742-.821 4.316-1.328 1.575-.5 3.334-.956 5.292-1.381a66.47 66.47 0 0 1 6.556-1.033c2.418-.27 5.16-.403 8.227-.403 8.98 0 15.167 2.61 18.582 7.835 3.414 5.225 4.013 12.368 1.78 21.427L220.86 107h-17.14l7.59-32.042a66.978 66.978 0 0 0 1.095-5.822c.265-1.88.244-3.53-.06-4.951-.303-1.421-1.013-2.576-2.128-3.46-1.117-.881-2.816-1.322-5.115-1.322-2.225 0-4.487.226-6.8.689L187.147 107H170l13.925-57.855zM244.787 31.766L262.425 29l-4.33 17.892H277l-3.415 14.081h-18.787l-5.01 21.24c-.453 1.776-.724 3.426-.797 4.965-.08 1.535.11 2.87.563 3.985.461 1.116 1.273 1.98 2.45 2.595 1.185.623 2.86.927 5.068.927 1.82 0 3.59-.181 5.294-.522a39.178 39.178 0 0 0 5.178-1.443l1.251 13.158a59.532 59.532 0 0 1-7.401 2.192c-2.654.615-5.8.93-9.433.93-5.251 0-9.31-.793-12.19-2.37-2.883-1.578-4.944-3.736-6.15-6.465-1.215-2.728-1.75-5.865-1.595-9.406.16-3.54.68-7.281 1.594-11.197l11.167-47.796zM305.453 59.56c-2.529 0-4.762.73-6.676 2.193-1.922 1.468-3.533 3.313-4.835 5.546-1.3 2.23-2.284 4.672-2.934 7.332-.658 2.66-.976 5.183-.976 7.565 0 3.863.614 6.857 1.841 9.01 1.227 2.162 3.452 3.242 6.674 3.242 2.53 0 4.754-.734 6.676-2.2 1.915-1.462 3.527-3.306 4.827-5.54 1.309-2.237 2.284-4.682 2.935-7.339.65-2.653.983-5.176.983-7.569 0-3.852-.614-6.849-1.84-9.009-1.228-2.152-3.452-3.232-6.675-3.232M296.937 109c-4.074 0-7.593-.62-10.594-1.847-2.986-1.236-5.47-2.965-7.414-5.199-1.96-2.234-3.438-4.868-4.435-7.914-.99-3.042-1.494-6.412-1.494-10.107 0-4.62.747-9.243 2.24-13.866 1.5-4.619 3.696-8.775 6.616-12.47 2.913-3.7 6.49-6.723 10.712-9.076C296.78 46.176 301.616 45 307.07 45c3.978 0 7.489.616 10.527 1.848 3.024 1.231 5.522 2.964 7.466 5.198 1.959 2.237 3.438 4.875 4.435 7.914C330.505 63 331 66.376 331 70.067c0 4.623-.732 9.246-2.188 13.866-1.463 4.62-3.607 8.775-6.439 12.478-2.839 3.692-6.394 6.715-10.652 9.065-4.258 2.348-9.188 3.524-14.784 3.524M103 107a338.572 338.572 0 0 0 6.118-4.95c4.245-3.512 11.568-6.476 20.051-9.908 8.93-3.616 19.045-7.712 27.952-13.363C168.228 71.742 174.844 56.96 178 48c-7.323 4.618-15.037 7.631-23.092 10.78-8.466 3.306-17.218 6.727-26.539 12.335C114.558 79.429 106.628 96.855 103 107M125.185 67.011c9.774-5.86 18.789-9.376 27.504-12.775 3.161-1.234 6.266-2.454 9.311-3.755-1.698-1.493-3.718-2.713-6.045-3.646-3.067-1.223-6.613-1.835-10.65-1.835-5.517 0-10.402 1.168-14.681 3.498-4.265 2.337-7.878 5.341-10.833 9.015-2.948 3.671-5.177 7.8-6.689 12.388A44.01 44.01 0 0 0 111 80c3.898-5.016 8.582-9.616 14.185-12.989M159.68 83.192c-9.394 5.929-19.839 10.124-29.049 13.834-4.748 1.913-9.098 3.669-12.631 5.399 1.721 1.541 3.75 2.797 6.097 3.742 3.035 1.218 6.609 1.833 10.742 1.833 5.685 0 10.688-1.167 15-3.496 4.324-2.33 7.922-5.329 10.802-8.991 2.883-3.673 5.066-7.794 6.54-12.377A45.292 45.292 0 0 0 169 75c-2.704 3.15-5.806 5.984-9.32 8.192M209.217 149.515v-16.011H204v-7.08h5.217V118h8.285v8.423h6.393v7.08h-6.393v13.842c0 1.978 1.042 3.448 2.868 3.448 1.239 0 2.415-.447 2.872-.958l1.758 6.187c-1.24 1.085-3.454 1.978-6.912 1.978-5.803 0-8.871-2.936-8.871-8.485M264.478 141.968c0-4.733-2.844-8.837-8.009-8.837-5.103 0-7.942 4.104-7.942 8.837 0 4.797 2.84 8.901 7.942 8.901 5.165 0 8.009-4.104 8.009-8.901m-24.478 0c0-8.646 6.202-15.968 16.47-15.968 10.329 0 16.53 7.322 16.53 15.968S266.799 158 256.47 158c-10.268 0-16.47-7.386-16.47-16.032M314.478 141.968c0-4.733-2.844-8.837-8.009-8.837-5.103 0-7.942 4.104-7.942 8.837 0 4.797 2.84 8.901 7.942 8.901 5.165 0 8.009-4.104 8.009-8.901m-24.478 0c0-8.646 6.202-15.968 16.47-15.968 10.329 0 16.53 7.322 16.53 15.968S316.799 158 306.47 158c-10.268 0-16.47-7.386-16.47-16.032M355 153.268l3.487-5.81c2.282 2.147 6.782 4.23 10.583 4.23 3.486 0 5.135-1.325 5.135-3.218 0-4.987-18.127-.883-18.127-12.876 0-5.113 4.435-9.594 12.548-9.594 5.135 0 9.257 1.766 12.3 4.165l-3.234 5.68c-1.84-1.892-5.323-3.533-9.066-3.533-2.913 0-4.817 1.26-4.817 2.966 0 4.481 18.191.693 18.191 13.002 0 5.616-4.817 9.72-13.309 9.72-5.326 0-10.456-1.767-13.691-4.732" fill="#FFF"/><g transform="translate(376 25)"><mask id="b" fill="#fff"><use xlink:href="#a"/></mask><path fill="#FFF" mask="url(#b)" d="M24.476.35l-.86 10.764 8.646 6.79-10.813 2.532-3.982 10.08-5.821-9.199-11.108-.56 7.215-8.217L4.87 2.113l10.28 4.121z"/></g><path fill="#FFF" d="M366.013 0l3.047 4.935 5.94.377-3.923 4.32 1.465 5.568-5.471-2.264L362.035 16l.542-5.72L358 6.605l5.806-1.27zM336.004 24l6.748 5.15 8.085-2.615-2.833 7.983 4.996 6.85-8.499-.217L339.504 48l-2.419-8.117L329 37.266l7.004-4.8zM352.042 74.444h-.003l-31.477 115.513c-.677 2.484.813 5.04 3.328 5.708a4.748 4.748 0 0 0 3.579-.462 4.65 4.65 0 0 0 2.2-2.825L361.15 76.847l-9.108-2.403zM363.705 45.16c-2.373-.664-4.814.799-5.453 3.27L352 72.61l8.598 2.39 6.248-24.164c.639-2.47-.768-5.011-3.14-5.676"/></g></svg>
